X:173
T:Lincolnshire Polka
R: polka 32
M:2/2
L:1/8
Q:190
K:D
F2A2 GFGB|A2d2f3 e|e2g2 B2c2|d2 fe dcBA|!
F2A2 GFGB|A2d2f3 e|e2 gg B2 cc|1d4d4:|2d6 A2||!
d2c2G2B2|BB A2F3 A|A2G2E2B2|B2A2F3 A|!
d2c2G2B2|BBA2F3A|A2AAB2c2|1e2d2d2 A2:|2 e2 d2 d2||

